svg/transit_connection_horizontal.svg

<svg xmlns="http://www.w3.org/2000/svg" viewBox="0 0 24 24"><path d="M12 9c-1.3 0-2.4.8-2.8 2H6.8C6.4 9.8 5.3 9 4 9c-1.7 0-3 1.3-3 3s1.3 3 3 3c1.3 0 2.4-.8 2.8-2h2.4c.4 1.2 1.5 2 2.8 2s2.4-.8 2.8-2h2.4c.4 1.2 1.5 2 2.8 2 1.7 0 3-1.3 3-3s-1.3-3-3-3c-1.3 0-2.4.8-2.8 2h-2.4c-.4-1.2-1.5-2-2.8-2m-9 3c0-.6.4-1 1-1s1 .4 1 1-.4 1-1 1-1-.4-1-1m18 0c0 .6-.4 1-1 1s-1-.4-1-1 .4-1 1-1 1 .4 1 1"/></svg>

<?xml version="1.0" encoding="UTF-8"?><!DOCTYPE svg PUBLIC "-//W3C//DTD SVG 1.1//EN" "http://www.w3.org/Graphics/SVG/1.1/DTD/svg11.dtd"><svg xmlns="http://www.w3.org/2000/svg" xmlns:xlink="http://www.w3.org/1999/xlink" version="1.1" id="mdi-transit-connection-horizontal" width="24" height="24" viewBox="0 0 24 24"><path d="M12 9C10.7 9 9.6 9.8 9.2 11H6.8C6.4 9.8 5.3 9 4 9C2.3 9 1 10.3 1 12S2.3 15 4 15C5.3 15 6.4 14.2 6.8 13H9.2C9.6 14.2 10.7 15 12 15S14.4 14.2 14.8 13H17.2C17.6 14.2 18.7 15 20 15C21.7 15 23 13.7 23 12S21.7 9 20 9C18.7 9 17.6 9.8 17.2 11H14.8C14.4 9.8 13.3 9 12 9M3 12C3 11.4 3.4 11 4 11S5 11.4 5 12 4.6 13 4 13 3 12.6 3 12M21 12C21 12.6 20.6 13 20 13S19 12.6 19 12 19.4 11 20 11 21 11.4 21 12Z" /></svg>
